X:210
T:Polska efter J.J. Bruun
R:sl\"angpolska
A:Sk{\aa}ne
B:SvL Sk 535, efter J.J. Bruun, S\"arsl\"ov, sjungen av hans moder.
Z:id:hn-sp-210
M:3/4
L:1/16
K:Am
c3d efge f2e2 | e2a2 a^ga=g f2e2 | c3d e2eg f2f2 | e2e2 c4 A4 :|
|: ABcB ABcB ABcd | efge f4 e4 | ABcB ABcB ABcd | efge f4 e4 |
e2a^g a2a=g e4 | g2ge gfed c4 | d2df e2e2 d3B | c3A B4 A4 :|
<end>
<start>
